!!!COM: Ockeghem, Johannes
!!!CDT: ~1425-1497/02/06
!!!OTL: Prenez sur moy
!!!AGN: Song; Chanson
!!!SCT: Ock3015
!!!SCA: Ock3015
!!!voices: 3
**kern	**text	**text	**text	**kern	**text	**text	**text	**kern	**text	**text	**text
*staff3	*staff3	*staff3	*staff3	*staff2	*staff2	*staff2	*staff2	*staff1	*staff1	*staff1	*staff1
*Ivox	*	*	*	*Ivox	*	*	*	*Ivox	*	*	*
*I"1	*	*	*	*I"2	*	*	*	*I"3	*	*	*
*I'1	*	*	*	*I'2	*	*	*	*I'3	*	*	*
*clefGv2	*	*	*	*clefGv2	*	*	*	*clefG2	*	*	*
*k[]	*	*	*	*k[]	*	*	*	*k[]	*	*	*
*M3/1	*	*	*	*M3/1	*	*	*	*M3/1	*	*	*
*met(O)	*	*	*	*met(O)	*	*	*	*met(O)	*	*	*
=1-	=1-	=1-	=1-	=1-	=1-	=1-	=1-	=1-	=1-	=1-	=1-
!!LO:TX:Z=52:t=Form&colon; rondeau
!!LO:TX:Z=32:t=Mens. sign editorial
!!LO:TX:Z=8:t=3-ex-1 canon (upper 4th)
1.A	Pre-	Ser-	Pour	0.r	.	.	.	0.r	.	.	.
2B	-nez	-vant	ung	.	.	.	.	.	.	.	.
1c	sur	A-	plai-	.	.	.	.	.	.	.	.
=2	=2	=2	=2	=2	=2	=2	=2	=2	=2	=2	=2
1.d	moi	-mours,	-sir	1.d	Pre-	Ser-	Pour	0.r	.	.	.
2c	vos-	me	cent	2e	-nez	-vant	ung	.	.	.	.
1d	-tre e-	suis	pan-	1f	sur	A-	plai-	.	.	.	.
=3	=3	=3	=3	=3	=3	=3	=3	=3	=3	=3	=3
1.e	-xem-	trou-	-sers	1.g	moi	-mours,	-sir	1.g	Pre-	Ser-	Pour
4d	.	.	.	2f	vos-	me	cent	2a	-nez	-vant	ung
4c	.	.	.	.	.	.	.	.	.	.	.
1B	.	.	.	1g	-tre e-	suis	pan-	1b	sur	A-	plai-
=4	=4	=4	=4	=4	=4	=4	=4	=4	=4	=4	=4
1A	-ple	-v&eacute;	.	1.a	-xem-	trou-	-sers	1.cc	moi	-mours,	-sir
1r	.	.	.	.	.	.	.	.	.	.	.
.	.	.	.	4g	.	.	.	2b	vos-	me	cent
.	.	.	.	4f	.	.	.	.	.	.	.
1A	a-	eu-	en-	1e	.	.	.	1cc	-tre e-	suis	pan-
=5	=5	=5	=5	=5	=5	=5	=5	=5	=5	=5	=5
2B	.	.	-nui-	1d	-ple	-v&eacute;	.	1.dd	-xem-	trou-	-sers
1G	.	.	.	.	.	.	.	.	.	.	.
.	.	.	.	1r	.	.	.	.	.	.	.
2E	.	.	.	.	.	.	.	4cc	.	.	.
.	.	.	.	.	.	.	.	4b	.	.	.
1F	-mou-	-reux	-eux	1d	a-	eu-	en-	1a	.	.	.
=6	=6	=6	=6	=6	=6	=6	=6	=6	=6	=6	=6
1E	-reux	.	.	2e	.	.	-nui-	1g	-ple	-v&eacute;	.
.	.	.	.	1c	.	.	.	.	.	.	.
2e	Com-	L'u-	Pour	.	.	.	.	1r	.	.	.
1e	-men-	-ne	ung	2A	.	.	.	.	.	.	.
.	.	.	.	1B	-mou-	-reux	-eux	1g	a-	eu-	en-
2d	-ce-	des	so-	.	.	.	.	.	.	.	.
=7	=7	=7	=7	=7	=7	=7	=7	=7	=7	=7	=7
2c	-ment	foiz,	-las	1A	-reux	.	.	2a	.	.	-nui-
1A	.	.	.	.	.	.	.	1f	.	.	.
.	.	.	.	2a	Com-	L'u-	Pour	.	.	.	.
2d	d'a-	et	cent	1a	-men-	-ne	ung	2d	.	.	.
2c	.	l'au-	.	.	.	.	.	1e	-mou-	-reux	-eux
2B	.	.	.	2g	-ce-	des	so-	.	.	.	.
=8	=8	=8	=8	=8	=8	=8	=8	=8	=8	=8	=8
1d	-mours	-tre	dan-	2f	-ment	foiz,	-las	1d	-reux	.	.
.	.	.	.	1d	.	.	.	.	.	.	.
2B	.	.	.	.	.	.	.	2dd	Com-	L'u-	Pour
2G	.	.	.	2g	d'a-	et	cent	1dd	-men-	-ne	ung
1A	.	.	-giers	2f	.	l'au-	.	.	.	.	.
.	.	.	.	2e	.	.	.	2cc	-ce-	des	so-
=9	=9	=9	=9	=9	=9	=9	=9	=9	=9	=9	=9
1G	.	.	.	1g	-mours	-tre	dan-	2b	-ment	foiz,	-las
.	.	.	.	.	.	.	.	1g	.	.	.
1r	.	.	.	2e	.	.	.	.	.	.	.
.	.	.	.	2c	.	.	.	2cc	d'a-	et	cent
2G	est	mal-	pe-	1d	.	.	-giers	2b	.	l'au-	.
2F	.	.	.	.	.	.	.	2a	.	.	.
=10	=10	=10	=10	=10	=10	=10	=10	=10	=10	=10	=10
2.A	sa-	.	-ril-	1c	.	.	.	1cc	-mours	-tre	dan-
4G	.	.	.	.	.	.	.	.	.	.	.
2F	.	.	.	1r	.	.	.	2a	.	.	.
2D	.	.	.	.	.	.	.	2f	.	.	.
1E	-vou-	-leu-	-leux	2c	est	mal-	pe-	1g	.	.	-giers
.	.	.	.	2B	.	.	.	.	.	.	.
=11	=11	=11	=11	=11	=11	=11	=11	=11	=11	=11	=11
1D	-reux	-reux	.	2.d	sa-	.	-ril-	1f	.	.	.
.	.	.	.	4c	.	.	.	.	.	.	.
2r	.	.	.	2B	.	.	.	1r	.	.	.
2d	Et	Ung	Pour	2G	.	.	.	.	.	.	.
2c	le	jour	ung	1A	-vou-	-leu-	-leux	2f	est	mal-	pe-
[2e	.	.	.	.	.	.	.	2e	.	.	.
=12	=12	=12	=12	=12	=12	=12	=12	=12	=12	=12	=12
2e]	.	.	.	1G	-reux	-reux	.	2.g	sa-	.	-ril-
2d	mo-	sen-	ac-	.	.	.	.	.	.	.	.
.	.	.	.	.	.	.	.	4f	.	.	.
1e	-yen	-tant	-cueil	2r	.	.	.	2e	.	.	.
.	.	.	.	2g	Et	Ung	Pour	2c	.	.	.
2r	.	.	.	2f	le	jour	ung	1d	-vou-	-leu-	-leux
2d	plain	con-	cent	[2a	.	.	.	.	.	.	.
=13	=13	=13	=13	=13	=13	=13	=13	=13	=13	=13	=13
2e	.	.	.	2a]	.	.	.	1c	-reux	-reux	.
1c	.	.	.	2g	mo-	sen-	ac-	.	.	.	.
.	.	.	.	1a	-yen	-tant	-cueil	2r	.	.	.
2A	de	.	re-	.	.	.	.	2cc	Et	Ung	Pour
1B	pai-	-fort,	-gars	2r	.	.	.	2b	le	jour	ung
.	.	.	.	2g	plain	con-	cent	[2dd	.	.	.
=14	=14	=14	=14	=14	=14	=14	=14	=14	=14	=14	=14
1A	-ne	.	.	2a	.	.	.	2dd]	.	.	.
.	.	.	.	1f	.	.	.	2cc	mo-	sen-	ac-
2r	.	.	.	.	.	.	.	1dd	-yen	-tant	-cueil
2B	et	l'au-	par	2d	de	.	re-	.	.	.	.
2c	tris-	-tre	ru-	1e	pai-	-fort,	-gars	2r	.	.	.
2A	.	des-	.	.	.	.	.	2cc	plain	con-	cent
=15	=15	=15	=15	=15	=15	=15	=15	=15	=15	=15	=15
4B	-tes-	-tres-	-des-	1d	-ne	.	.	2dd	.	.	.
4A	.	.	.	.	.	.	.	.	.	.	.
4G	.	.	.	.	.	.	.	1b	.	.	.
4F	.	.	.	.	.	.	.	.	.	.	.
1E	.	.	.	2r	.	.	.	.	.	.	.
.	.	.	.	2e	et	l'au-	par	2g	de	.	re-
1D	.	.	.	2f	tris-	-tre	ru-	1a	pai-	-fort,	-gars
.	.	.	.	2d	.	des-	.	.	.	.	.
=16	=16	=16	=16	=16	=16	=16	=16	=16	=16	=16	=16
2G	.	.	.	4e	-tes-	-tres-	-des-	1g	-ne	.	.
.	.	.	.	4d	.	.	.	.	.	.	.
2E	.	.	.	4c	.	.	.	.	.	.	.
.	.	.	.	4B	.	.	.	.	.	.	.
1F	-se,	.	-se	1A	.	.	.	2r	.	.	.
.	.	.	.	.	.	.	.	2a	et	l'au-	par
2r	.	.	.	1G	.	.	.	2b	tris-	-tre	ru-
[2E	Et	.	S'A-	.	.	.	.	2g	.	des-	.
=17	=17	=17	=17	=17	=17	=17	=17	=17	=17	=17	=17
2E]	.	.	.	2c	.	.	.	4a	-tes-	-tres-	-des-
.	.	.	.	.	.	.	.	4g	.	.	.
2F	la	.	.	2A	.	.	.	4f	.	.	.
.	.	.	.	.	.	.	.	4e	.	.	.
1GN	fin[-se]	-se.&	-mours	1BN	-se,	-se.&	-se	1dN	[-se]	-se.&	.
1A	est	.	sert	2r	.	.	.	1c	.	.	.
.	.	.	.	[2A	Et	.	S'A-	.	.	.	.
=18	=18	=18	=18	=18	=18	=18	=18	=18	=18	=18	=18
2F	d'a-	.	donc-	2A]	.	.	.	2f	.	.	.
1G	-voir	.	.	2B	la	.	.	2d	.	.	.
.	.	.	.	1c	fin	.	-mours	1e	-se,	.	-se
2E	.	.	.	.	.	.	.	.	.	.	.
1D	.	.	-ques	1d	est	.	sert	2r	.	.	.
.	.	.	.	.	.	.	.	[2d	Et	.	S'A-
=19	=19	=19	=19	=19	=19	=19	=19	=19	=19	=19	=19
1r	.	.	.	2B	d'a-	.	donc-	2d]	.	.	.
.	.	.	.	1c	-voir	.	.	2e	la	.	.
1A	plai-	.	de	.	.	.	.	1f	fin	.	-mours
.	.	.	.	2A	.	.	.	.	.	.	.
1B	.	.	.	1G	.	.	-ques	1g	est	.	sert
=20	=20	=20	=20	=20	=20	=20	=20	=20	=20	=20	=20
2c	-sant	.	telz	1r	.	.	.	2e	d'a-	.	donc-
2d	.	.	.	.	.	.	.	1f	-voir	.	.
1B	.	.	.	1d	plai-	.	de	.	.	.	.
.	.	.	.	.	.	.	.	2d	.	.	.
2A	.	.	mets	1e	.	.	.	1c	.	.	-ques
2c	.	.	.	.	.	.	.	.	.	.	.
=21	=21	=21	=21	=21	=21	=21	=21	=21	=21	=21	=21
2d	.	.	.	2f	-sant	.	telz	1r	.	.	.
2.e	.	.	.	2g	.	.	.	.	.	.	.
.	.	.	.	1e	.	.	.	1g	plai-	.	de
4c	.	.	.	.	.	.	.	.	.	.	.
2c	.	.	.	.	.	.	.	.	.	.	.
2r	.	.	.	2d	.	.	mets	1a	.	.	.
2d	mais-	.	a	2f	.	.	.	.	.	.	.
=22	=22	=22	=22	=22	=22	=22	=22	=22	=22	=22	=22
2B	.	.	lar-	2g	.	.	.	2b	-sant	.	telz
2A	.	.	.	2.a	.	.	.	2cc	.	.	.
1d	-tres-	.	-ges-	.	.	.	.	1a	.	.	.
.	.	.	.	4f	.	.	.	.	.	.	.
.	.	.	.	2f	.	.	.	.	.	.	.
1G	.	.	.	2r	.	.	.	2g	.	.	mets
.	.	.	.	2g	mais-	.	a	2b	.	.	.
=23	=23	=23	=23	=23	=23	=23	=23	=23	=23	=23	=23
2A	.	.	.	2e	.	.	lar-	2cc	.	.	.
1B	.	.	.	2d	.	.	.	2.dd	.	.	.
.	.	.	.	1g	-tres-	.	-ges-	.	.	.	.
.	.	.	.	.	.	.	.	4b	.	.	.
2G	.	.	.	.	.	.	.	2b	.	.	.
1A	.	.	.	1c	.	.	.	2r	.	.	.
.	.	.	.	.	.	.	.	2cc	mais-	.	a
=24	=24	=24	=24	=24	=24	=24	=24	=24	=24	=24	=24
2F	.	.	.	2d	.	.	.	2a	.	.	lar-
2G	.	.	.	1e	.	.	.	2g	.	.	.
4A	.	.	.	.	.	.	.	1cc	-tres-	.	-ges-
4G	.	.	.	.	.	.	.	.	.	.	.
4F	.	.	.	2c	.	.	.	.	.	.	.
4E	.	.	.	.	.	.	.	.	.	.	.
1D	.	.	.	1d	.	.	.	1f	.	.	.
=25	=25	=25	=25	=25	=25	=25	=25	=25	=25	=25	=25
2G	.	.	.	2B	.	.	.	2g	.	.	.
2F	.	.	.	2c	.	.	.	1a	.	.	.
1D	-se,	.	-se	4d	.	.	.	.	.	.	.
.	.	.	.	4c	.	.	.	.	.	.	.
.	.	.	.	4B	.	.	.	2f	.	.	.
.	.	.	.	4A	.	.	.	.	.	.	.
2r	.	.	.	1G	.	.	.	1g	.	.	.
2d	Mais	.	Et	.	.	.	.	.	.	.	.
=26	=26	=26	=26	=26	=26	=26	=26	=26	=26	=26	=26
2e	.	.	.	2c	.	.	.	2e	.	.	.
2d	.	.	.	2B	.	.	.	2f	.	.	.
1B	au	.	les	1G	-se,	.	-se	4g	.	.	.
.	.	.	.	.	.	.	.	4f	.	.	.
.	.	.	.	.	.	.	.	4e	.	.	.
.	.	.	.	.	.	.	.	4d	.	.	.
2A	sail-	.	loi-	2r	.	.	.	1c	.	.	.
[2c	.	.	.	2g	Mais	.	Et	.	.	.	.
=27	=27	=27	=27	=27	=27	=27	=27	=27	=27	=27	=27
4c]	.	.	.	2a	.	.	.	2f	.	.	.
4d	.	.	.	.	.	.	.	.	.	.	.
1e	.	.	.	2g	.	.	.	2e	.	.	.
.	.	.	.	1e	au	.	les	1c	-se,	.	-se
2c	.	.	.	.	.	.	.	.	.	.	.
2d	.	.	.	2d	sail-	.	loi-	2r	.	.	.
2A	.	.	.	[2f	.	.	.	2cc	Mais	.	Et
=28	=28	=28	=28	=28	=28	=28	=28	=28	=28	=28	=28
2B	.	.	.	4f]	.	.	.	2dd	.	.	.
.	.	.	.	4g	.	.	.	.	.	.	.
4c	.	.	.	1a	.	.	.	2cc	.	.	.
2d	.	.	.	.	.	.	.	.	.	.	.
.	.	.	.	.	.	.	.	1a	au	.	les
4c	.	.	.	.	.	.	.	.	.	.	.
2A	.	.	.	2f	.	.	.	.	.	.	.
1B	-lir	.	-aux	2g	.	.	.	2g	sail-	.	loi-
.	.	.	.	2d	.	.	.	[2b	.	.	.
=29	=29	=29	=29	=29	=29	=29	=29	=29	=29	=29	=29
2A	sont	.	fait	2e	.	.	.	4b]	.	.	.
.	.	.	.	.	.	.	.	4cc	.	.	.
2G	.	.	.	4f	.	.	.	1dd	.	.	.
.	.	.	.	2g	.	.	.	.	.	.	.
1B	.	.	.	.	.	.	.	.	.	.	.
.	.	.	.	4f	.	.	.	.	.	.	.
.	.	.	.	2d	.	.	.	2b	.	.	.
2A	les	.	les	1e	-lir	.	-aux	2cc	.	.	.
2E	.	.	.	.	.	.	.	2g	.	.	.
=30	=30	=30	=30	=30	=30	=30	=30	=30	=30	=30	=30
1F	pas	.	plus	2d	sont	.	fait	2a	.	.	.
.	.	.	.	2c	.	.	.	4b	.	.	.
.	.	.	.	.	.	.	.	2cc	.	.	.
1E	.	.	.	1e	.	.	.	.	.	.	.
.	.	.	.	.	.	.	.	4b	.	.	.
.	.	.	.	.	.	.	.	2g	.	.	.
2r	.	.	.	2d	les	.	les	1a	-lir	.	-aux
[2e	dan-	.	do-	2A	.	.	.	.	.	.	.
=31	=31	=31	=31	=31	=31	=31	=31	=31	=31	=31	=31
2e]	.	.	.	1B	pas	.	plus	2g	sont	.	fait
2d	.	.	.	.	.	.	.	2f	.	.	.
2.c	.	.	.	1A	.	.	.	1a	.	.	.
4B	.	.	.	.	.	.	.	.	.	.	.
2c	.	.	.	2r	.	.	.	2g	les	.	les
2d	.	.	.	[2a	dan-	.	do-	2d	.	.	.
=32	=32	=32	=32	=32	=32	=32	=32	=32	=32	=32	=32
2.c	.	.	.	2a]	.	.	.	1e	pas	.	plus
.	.	.	.	2g	.	.	.	.	.	.	.
4A	.	.	.	.	.	.	.	.	.	.	.
2B	.	.	.	2.f	.	.	.	1d	.	.	.
1A	.	.	.	.	.	.	.	.	.	.	.
.	.	.	.	4e	.	.	.	.	.	.	.
.	.	.	.	2f	.	.	.	2r	.	.	.
2G	.	.	.	2g	.	.	.	[2dd	dan-	.	do-
=33	=33	=33	=33	=33	=33	=33	=33	=33	=33	=33	=33
1A	.	.	.	2.f	.	.	.	2dd]	.	.	.
.	.	.	.	.	.	.	.	2cc	.	.	.
.	.	.	.	4d	.	.	.	.	.	.	.
2G	.	.	.	2e	.	.	.	2.b	.	.	.
2F	.	.	.	1d	.	.	.	.	.	.	.
.	.	.	.	.	.	.	.	4a	.	.	.
1E	.	.	.	.	.	.	.	2b	.	.	.
.	.	.	.	2c	.	.	.	2cc	.	.	.
=34	=34	=34	=34	=34	=34	=34	=34	=34	=34	=34	=34
2D	.	.	.	1d	.	.	.	2.b	.	.	.
1F	.	.	.	.	.	.	.	.	.	.	.
.	.	.	.	.	.	.	.	4g	.	.	.
.	.	.	.	2c	.	.	.	2a	.	.	.
2G	.	.	.	2B	.	.	.	1g	.	.	.
1D	-ge-	.	-lou-	1A	-ge-	.	-lou-	.	.	.	.
.	.	.	.	.	.	.	.	2f#i	-ge-	.	-lou-
=35	=35	=35	=35	=35	=35	=35	=35	=35	=35	=35	=35
0dl	-reux.	.	-reux.	0Gl	-reux.	.	-reux.	0gl	-reux.	.	-reux.
==	==	==	==	==	==	==	==	==	==	==	==
*-	*-	*-	*-	*-	*-	*-	*-	*-	*-	*-	*-
!!!RDF**kern: l=long note in original notation
!!!RDF**kern: i=editorial accidental
!!!RDF**kern: V=start of tuplet marker
!!!RDF**kern: Z=end of tuplet marker
!!!RDF**kern: N = signum congruentiae
!!!ENC: Jesse Rodin 9 March 2018
!!!END: 2018/04/17/
!!!EED: Jesse Rodin
!!!EEV: 2018/07/23/
!!!ONB: Translated from MusicXML and edited on 2018/07/23/ by Craig Sapp
!!muse2ps: C^@{COM}\nEd. @{EED}^i2I150v85,85,120Q16z18l2650t120c75
